Adwaita++/actions/22/widget-alternatives.svg

<svg height="22" width="22" xmlns="http://www.w3.org/2000/svg">
  <path d="m13 4v2h-4v2h4v2l2.5-1.5 2.5-1.5-2.5-1.5zm-9 1v4h4v-4zm5 7-2.5 1.5-2.5 1.5 2.5 1.5 2.5 1.5v-2h4v-2h-4zm5 1v4h4v-4z" fill="#444"/>
</svg>

<svg xmlns="http://www.w3.org/2000/svg" width="22" height="22" version="1.1">
 <defs>
  <style id="current-color-scheme" type="text/css">
   .ColorScheme-Text { color:#444444; } .ColorScheme-Highlight { color:#4285f4; }
  </style>
 </defs>
 <path style="fill:currentColor" class="ColorScheme-Text" d="M 13,4 V 6 H 9 v 2 h 4 v 2 L 15.5,8.5 18,7 15.5,5.5 Z M 4,5 V 9 H 8 V 5 Z M 9,12 6.5,13.5 4,15 6.5,16.5 9,18 v -2 h 4 V 14 H 9 Z m 5,1 v 4 h 4 v -4 z"/>
</svg>
